public/icons/03.svg

<svg width="46" height="26" viewBox="0 0 46 26" fill="none" xmlns="http://www.w3.org/2000/svg">
<path d="M4.70033 25.8662L0.815332 21.9812V3.95621L4.70033 0.0712093H17.6503L21.5353 3.95621V21.9812L17.6503 25.8662H4.70033ZM8.58533 20.8962H13.7653L14.9903 19.6712V6.26621L13.7653 5.04121H8.58533L7.36033 6.26621V19.6712L8.58533 20.8962ZM28.5837 25.8662L24.8737 22.4362V17.9212H31.4187V19.8462L32.4687 20.8962H37.5787L38.6287 19.8462V15.9962L37.5787 14.9812H30.1937V10.0812H37.5787L38.6287 9.03121V6.09121L37.5787 5.04121H32.4687L31.4187 6.09121V8.01621H24.8737V3.50121L28.5487 0.0712093H41.2887L45.1737 3.95621V9.97621L42.5837 12.5312L45.1737 15.0862V21.9812L41.2887 25.8662H28.5837Z" fill="url(#paint0_linear_1343_358)"/>
<defs>
<linearGradient id="paint0_linear_1343_358" x1="-1" y1="-6.63179" x2="30.4451" y2="27.834" gradientUnits="userSpaceOnUse">
<stop stop-color="#E42BC8"/>
<stop offset="1" stop-color="#5670FD"/>
</linearGradient>
</defs>
</svg>

<svg width="46" height="26" fill="none" xmlns="http://www.w3.org/2000/svg"><path d="M4.7 25.866.815 21.981V3.956L4.7.071h12.95l3.885 3.885v18.025l-3.885 3.885H4.7zm3.885-4.97h5.18l1.225-1.225V6.266l-1.225-1.225h-5.18L7.36 6.266v13.405l1.225 1.225zm19.999 4.97-3.71-3.43v-4.515h6.545v1.925l1.05 1.05h5.11l1.05-1.05v-3.85l-1.05-1.015h-7.385v-4.9h7.385l1.05-1.05v-2.94l-1.05-1.05h-5.11l-1.05 1.05v1.925h-6.545V3.501l3.675-3.43h12.74l3.885 3.885v6.02l-2.59 2.555 2.59 2.555v6.895l-3.885 3.885H28.584z" fill="url(#a)"/><defs><linearGradient id="a" x1="-1" y1="-6.632" x2="30.445" y2="27.834" gradientUnits="userSpaceOnUse"><stop stop-color="#E42BC8"/><stop offset="1" stop-color="#5670FD"/></linearGradient></defs></svg>
